X:1
T:Title
%%score ( 1 2 ) { 3 | 4 }
L:1/8
Q:1/4=100
M:3/4
K:G
V:1 treble nm="Grand Piano, Soprano"
V:2 treble 
V:3 bass nm="Choir Pad, Tunisia, 76.76 D"
V:4 bass 
V:1
 [GB]2 [Gd]3 [GB] | [DA][DG] [DA]2 [DG]2 | [EG]2 [EG]3 [EG] | [DF][CE] [B,D]4 | [DB]2 [DA]3 [DG] | %5
w: By~Robert~Lowry,~1880 * *|||||
 [DA][DB] [DA]2 [DG]2 | [FA]2 [GB]3 [FA] | [GB][Gc] [FA]4 | [Fd]2 [FA]3 [GB] | %9
w: ||||
 [Ac][GB] [GB]2 [FA]2 | [FA]2 [EG]3 [GB] | [FA][EG] [^DF]4 | GF E3 [EG] | [DF][CE] [B,D]2 [DG]2 | %14
w: |||||
 [GB]2 [FA]3 G | [GB]>[FA] G4- | G4 z2 |] %17
w: |||
V:2
 x6 | x6 | x6 | x6 | x6 | x6 | x6 | x6 | x6 | x6 | x6 | x6 | ^D2 z2 z2 | x6 | x6 | x6 | x6 |] %17
V:3
 G,2 B,3 D | CB, C2 B,2 | B,2 C3 C | G,G, G,4 | G,2[K:treble] C3 B, | CD C2 B,2 | D2 D3 D | DE D4 | %8
 A,2 D3 D | DD D2 D2 | C2[K:bass] B,3 B, | B,B, B,4 | B,A, G,3 G, | G,G, G,2 B,2 | D2 C3 B, | %15
 D>C B,4- | B,4 z2 |] %17
V:4
 z2 G,3 G, | F,G, D,2 G,2 | E,2 C,3 C, | C,C, G,,4 | z2 D,3 D, | D,D, G,,2 G,,2 | D,2 G,3 D, | %7
 G,C, D,4 | D,2 D,3 D, | D,D, D,2 D,2 | D,2 E,3 E, | ^D,E, B,,4 | B,,2 C,3 C, | C,C, G,,2 G,,2 | %14
 G,2 D,3 D, | D,>D, G,,4- | G,,4 z2 |] %17

